!!!SOCIAL_FUNCTION:	songs of ceremonial dances
!!!PDT:	1958
!!!OTL: No_1_Song_of_the_Hesi_Dance_(a).krn
!!!REG: Northern California
!!!LANG: Non-Tone
!!!LING_GROUP: Penutian
**kern
*staff1
=1-
*clefF4
*k[b-e-a-]
*M2/4
4G\
(16G\LL
16F\)
16G\JJ
16r
=2
8G\L
(16F\L
16E-\JJ)
8C/L
8E-/J
=3
4F\
(16F\LL
16E-\J)
8G\J
=4
8G\L
16F\L
16E-\JJ
8C/L
8F/J
=5
4G\
8E-\L
16G\Jk
16r
=6
8G\L
16F\L
16E-\JJ
8C/L
16E-/Jk
16r
=7
4F\
16F\LL
16E-\J
8E-\J
=8
8G\L
16F\L
16E-\JJ
8C/L
8F/J
=9
4G\
(16G\LL
16F\)
16G\JJ
16r
=10
8F\L
(16F\L
16E-\JJ)
8C/L
16E-/Jk
16r
=11
4F\
(16F\LL
16E-\)
16G\JJ
16r
=12
8G\L
16F\L
16E-\JJ
8C/L
16E-/Jk
16r
=13
4G\
(16G\LL
16F\)
16G\JJ
16r
=14
8F\L
(16F\L
16E-\JJ)
8C/L
16E-/Jk
16r
=15
4F\
16F\LL
16E-\
16G\JJ
16r
=16
8G\L
(16F\L
16E-\JJ)
8C/L
16F/Jk
16r
=17
8.G\L
16F\Jk
8E-\L
8G\J
=18
8G\L
16G\L
16F\JJ
8C/L
16E-/Jk
16r
=19
4F\
8.E-\L
16G\Jk
=20
8G\L
(16F\L
16E-\JJ)
8C/L
16F/Jk
16r
=21
4G\
16F\LL
16F\
16G\JJ
16r
=22
8E-\L
16E-\L
16C\JJ
8C/L
16E-/Jk
16r
=23
4F\
8E-\L
8G\J
=24
8G\L
16F\L
16E-\JJ
8C/L
16F/Jk
16r
=25
4G\
8F\L
8G\J
=26
8G\L
16F\L
16E-\JJ
8C/L
16E-/Jk
16r
=27
4F\
8E-\L
16G\Jk
16r
=28
8G\L
16F\L
16E-\JJ
8C/L
16E-/Jk
16r
=29
4F\
8E-\L
8G\J
=30
8F\L
16F\L
16E-\JJ
8C/L
16F/Jk
16r
=31
4G\
(16G\LL
16F\J)
8G\J
=32
8G\L
16F\L
16E-\JJ
8C/L
16E-/Jk
16r
=33
4F\
8E-\L
8G\J
=34
8G\L
(16F\L
16E-\JJ)
8C/L
16F/Jk
16r
=35
4F\
8E-\L
8F\J
=36
8F\L
(16F\L
16E-\JJ)
8C/L
16E-/Jk
16r
=37
4G\
8F\L
8G\J
=38
8F\L
(16F\L
16E-\JJ)
8C/L
16F/Jk
16r
=39
4F\
8E-\L
8G\J
=40
8F\L
(16F\L
16E-\JJ)
8C/L
16E-/Jk
16r
=41
4F\
8E-\L
8F\J
=42
8F\L
(16F\L
16E-\JJ)
8C/L
16E-/Jk
16r
==
*-
